X:1
T:Title
%%score { ( 1 3 ) | 2 }
L:1/8
M:4/4
K:Db
V:1 treble nm="Grand Piano"
V:3 treble 
V:2 bass 
V:1
 z4 z2[Q:1/4=100] A2 | d2 A2 F2 G2 | [FA]3 [GB] [FA]2 [FA]2 | B2 c2 d2 e2 |[M:3/4] d3 c c2 | %5
[M:1/4] e2 |[M:4/4] [=Ge]2 [Gc]2 [Gd]2 [GB]2 | c3 d e2 e2 | [=Ge]2 [Gc]2 [Gd]2 [GB]2 | %9
[M:7/8] [EAc]3 [D=GB] [CA]3 |[M:1/4] [GA]2 |[M:4/4] d6 z2 | F2 G2 A2 B2 | A6 z2 | c6 z2 | %15
 [Ge]2 [Gc]2 [GB]2 [EA]2 | d6 z2 | f6 z2 | d2 A2 [Gc]2 [GB]2 | A4 G4 | [A,DF]2 [DFA]2 [DAd]2 e2 | %21
 d4 c4 |[M:3/4] [Fd]6 |] %23
V:2
 z4 z2 A,2 | D2 A,2 F,2 G,2 | [D,D]3 [D,D] [D,D]2 [D,D]2 | [G,DG]2 [G,CG]2 [G,B,G]2 [G,B,G]2 | %4
[M:3/4] [A,F]3 [A,G] [A,G]2 |[M:1/4] [A,G]2 |[M:4/4][K:bass] [E,B,]2 [E,B,]2 [E,B,]2 [E,B,]2 | %7
 [A,A]3 [A,B,A] [A,CA]2 [A,CA]2 | [E,B,]2 [E,E]2 [E,E]2 [E,E]2 |[M:7/8] A,3 E, A,,3 |[M:1/4] A,2 | %11
[M:4/4] [D,A,]2 [E,A,]2 [F,D]2[K:treble] [A,DF]2 | D2 [B,D]2 [A,DF]2 [G,DG]2 | %13
 [F,D]2 [E,C]2 [D,D]2 [F,D]2 | [A,EA]2 [G,E]2 [E,A,]2 [A,,A,]2 | [C,A,]2 [E,A,]2 [A,C]2 [G,C]2 | %16
 [F,D]2 [E,A,]2 [D,A,]2[K:treble] [A,DF]2 | [DA]2[K:bass] [A,D]2 [F,D]2[K:treble] [A,CG]2 | %18
 [B,DF]2[K:bass] [F,D]2 [E,A,]2 [C,A,]2 | D,2 A,,2 C,2 A,,2 | D,2 D,2 F,2[K:treble] [G,B,G]2 | %21
 [A,F]2[K:bass] A,2 [A,,A,]2 [A,,A,]2 |[M:3/4] [D,A,]6 |] %23
V:3
 x8 | x8 | x8 | x8 |[M:3/4] x6 |[M:1/4] x2 |[M:4/4] x8 | x8 | x8 |[M:7/8] x7 |[M:1/4] x2 | %11
[M:4/4] F2 G2 A2 A2 | x8 | z2 G2 F2 A2 | z2 A2 G2 [Fd]2 | x8 | A2 G2 F2 A2 | z2 A2 A2 e2 | x8 | %19
 [A,F]2 [DF]2 [A,E]2 [A,C]2 | x8 | z2 F2 E2 G2 |[M:3/4] x6 |] %23

